assets/illustrations/keyboard_arrow_up.svg

<svg width="36" height="22" viewBox="0 0 36 22" fill="none" xmlns="http://www.w3.org/2000/svg">
<mask id="mask0_202_2787" style="mask-type:alpha" maskUnits="userSpaceOnUse" x="0" y="0" width="36" height="22">
<rect x="36" y="21.8003" width="36" height="21.6" transform="rotate(-180 36 21.8003)" fill="#D9D9D9"/>
</mask>
<g mask="url(#mask0_202_2787)">
<path d="M18.0001 0.87539C18.4001 0.87539 18.7751 0.93789 19.1251 1.06289C19.4751 1.18789 19.8001 1.40039 20.1001 1.70039L33.9001 15.5004C34.4501 16.0504 34.7251 16.7504 34.7251 17.6004C34.7251 18.4504 34.4501 19.1504 33.9001 19.7004C33.3501 20.2504 32.6501 20.5254 31.8001 20.5254C30.9501 20.5254 30.2501 20.2504 29.7001 19.7004L18.0001 8.00039L6.3001 19.7004C5.7501 20.2504 5.0501 20.5254 4.2001 20.5254C3.3501 20.5254 2.6501 20.2504 2.1001 19.7004C1.5501 19.1504 1.2751 18.4504 1.2751 17.6004C1.2751 16.7504 1.5501 16.0504 2.1001 15.5004L15.9001 1.70039C16.2001 1.40039 16.5251 1.18789 16.8751 1.06289C17.2251 0.937889 17.6001 0.87539 18.0001 0.87539Z" fill="#F2EFDE"/>
</g>
</svg>

<svg width="36" height="22" fill="none" xmlns="http://www.w3.org/2000/svg"><mask id="a" style="mask-type:alpha" maskUnits="userSpaceOnUse" x="0" y="0" width="36" height="22"><path transform="rotate(-180 36 21.8)" fill="#D9D9D9" d="M36 21.8h36v21.6H36z"/></mask><g mask="url(#a)"><path d="M18 .875c.4 0 .775.063 1.125.188s.675.337.975.637l13.8 13.8c.55.55.825 1.25.825 2.1 0 .85-.275 1.55-.825 2.1-.55.55-1.25.825-2.1.825-.85 0-1.55-.275-2.1-.825L18 8 6.3 19.7c-.55.55-1.25.825-2.1.825-.85 0-1.55-.275-2.1-.825-.55-.55-.825-1.25-.825-2.1 0-.85.275-1.55.825-2.1L15.9 1.7c.3-.3.625-.512.975-.637A3.32 3.32 0 0 1 18 .875Z" fill="#F2EFDE"/></g></svg>
